Sources/FrostedUI/Resources/Icons.xcassets/handWave16.imageset/hand-wave-16.svg

<svg width="16" height="16" viewBox="0 0 16 16" fill="none" xmlns="http://www.w3.org/2000/svg" data-fui-icon="true">
  <path
    d="M1.34363 11.7296C1.75212 11.663 2.13695 11.9404 2.20398 12.3488C2.22816 12.4961 2.36307 12.8017 2.62585 13.1183C2.88526 13.4307 3.17318 13.6373 3.40125 13.7052C3.79824 13.8231 4.02483 14.2408 3.9071 14.6378C3.78914 15.0344 3.37219 15.261 2.97546 15.1437C2.35745 14.9602 1.83575 14.515 1.47156 14.0763C1.11079 13.6417 0.805925 13.095 0.723511 12.5909C0.656772 12.1822 0.93489 11.7964 1.34363 11.7296ZM4.64148 2.51965C5.45511 1.70629 6.77426 1.70615 7.58777 2.51965L8.22937 3.16125C8.36038 2.88692 8.53917 2.6288 8.76648 2.40149L8.87292 2.30481C9.42936 1.85095 10.2507 1.88382 10.7694 2.40247L12.8905 4.52356C15.2008 6.8341 15.2008 10.5802 12.8905 12.8907C10.5799 15.2009 6.83381 15.201 4.52332 12.8907L1.34167 9.70911C0.528244 8.89568 0.527592 7.57645 1.3407 6.76282C1.5098 6.59372 1.70243 6.46123 1.90613 6.36243C1.5016 5.57842 1.62686 4.59091 2.28406 3.93372C2.78605 3.43181 3.48042 3.24106 4.12976 3.35852C4.22754 3.05181 4.39815 2.76298 4.64148 2.51965ZM6.52722 3.5802C6.29949 3.35247 5.92986 3.35264 5.70203 3.5802C5.47421 3.80802 5.47422 4.17758 5.70203 4.4054L7.11609 5.81946C7.40898 6.11235 7.40898 6.58809 7.11609 6.88098C6.8233 7.17345 6.34837 7.17339 6.05554 6.88098L4.1698 4.99426C3.94201 4.76672 3.57235 4.76665 3.3446 4.99426C3.11688 5.22199 3.11703 5.59163 3.3446 5.81946L5.70203 8.17688C5.99461 8.46972 5.99461 8.94459 5.70203 9.23743C5.4092 9.53008 4.93434 9.53003 4.64148 9.23743L3.22742 7.82336C2.99961 7.59556 2.62905 7.59556 2.40125 7.82336C2.17393 8.05121 2.17458 8.42092 2.40222 8.64856L5.58386 11.8302C7.30869 13.5548 10.1052 13.554 11.83 11.8292C13.5543 10.1045 13.5544 7.30882 11.83 5.58411L9.77136 3.52551C9.5077 3.82646 9.41118 4.22194 9.48621 4.59485C9.53304 4.82744 9.64556 5.04913 9.82703 5.23059C10.3055 5.7093 10.497 6.40398 10.3329 7.06067L10.2665 7.32922C10.1799 7.67541 10.2816 8.04263 10.5341 8.29504C10.8266 8.58797 10.8268 9.06283 10.5341 9.35559C10.2413 9.64833 9.76643 9.64808 9.47351 9.35559C8.84862 8.7307 8.59716 7.82325 8.8114 6.96594L8.87781 6.69739C8.91418 6.55185 8.87244 6.39729 8.76648 6.29114C8.43156 5.95622 8.20115 5.5546 8.07507 5.12903L6.52722 3.5802ZM11.2196 1.25989C11.341 0.86399 11.7601 0.641603 12.1561 0.762817C12.6096 0.90173 13.0945 1.15005 13.5087 1.45911C13.9122 1.76035 14.3251 2.17607 14.5321 2.68176C14.6884 3.06479 14.5047 3.50233 14.1219 3.6593C13.7387 3.81617 13.3004 3.63231 13.1434 3.24915C13.0817 3.09881 12.9087 2.88264 12.6122 2.66125C12.3261 2.44774 11.9941 2.28137 11.7167 2.19641C11.3208 2.07507 11.0985 1.65584 11.2196 1.25989Z"
    fill="currentColor"
  />
</svg>

<svg xmlns="http://www.w3.org/2000/svg" width="16" height="16" fill="none" data-fui-icon="true" viewBox="0 0 16 16"><path fill="currentColor" d="M1.344 11.73a.75.75 0 0 1 .86.619c.024.147.16.453.422.77.26.312.547.518.775.586a.75.75 0 0 1-.426 1.439c-.618-.184-1.14-.629-1.503-1.068-.361-.434-.666-.981-.748-1.485a.75.75 0 0 1 .62-.861M4.64 2.52a2.084 2.084 0 0 1 2.947 0l.641.641c.131-.274.31-.532.537-.76l.107-.096a1.42 1.42 0 0 1 1.896.097l2.121 2.122a5.917 5.917 0 0 1-8.367 8.367L1.342 9.709a2.084 2.084 0 0 1 .564-3.347A2.08 2.08 0 0 1 4.13 3.358c.098-.306.268-.595.511-.838m1.886 1.06a.584.584 0 0 0-.825.825L7.116 5.82a.751.751 0 0 1-1.06 1.062L4.17 4.994a.584.584 0 0 0-.825.825l2.357 2.358a.75.75 0 0 1-1.06 1.06L3.226 7.823a.584.584 0 0 0-.825.825l3.182 3.182a4.417 4.417 0 0 0 6.246-6.246L9.771 3.526a1.245 1.245 0 0 0 .056 1.705c.479.478.67 1.173.506 1.83l-.066.268c-.087.346.015.714.267.966a.75.75 0 0 1-1.06 1.06 2.52 2.52 0 0 1-.663-2.39l.067-.268a.43.43 0 0 0-.112-.406 2.74 2.74 0 0 1-.69-1.162zm4.693-2.32a.75.75 0 0 1 .936-.497c.454.139.938.387 1.353.696.403.301.816.717 1.023 1.223a.75.75 0 0 1-1.389.567c-.061-.15-.234-.366-.53-.588a3.1 3.1 0 0 0-.896-.465.75.75 0 0 1-.497-.936"/></svg>
